cantons/12.svg

<?xml version="1.0" encoding="UTF-8"?>
<svg enable-background="new 0 0 492.5 492.5" version="1.1" viewBox="0 0 492.5 492.5" xml:space="preserve" xmlns="http://www.w3.org/2000/svg">
<style type="text/css">
	.st0{fill:#FFFFFF;}
</style>

	
		<path class="st0" d="m450.6 1.5v296.6c0 106.6-91.7 192.9-204.4 192.9-112.9 0-204.2-86.2-204.2-192.9v-296.6h408.6z"/>
		<path d="m246.1 492.5c-27.8 0-54.7-5.1-80.1-15.2-24.5-9.8-46.5-23.8-65.4-41.6s-33.7-38.6-44.1-61.8c-10.7-24-16.2-49.4-16.2-75.7l0.1-298.2h411.7v298.1c0 26.3-5.5 51.7-16.2 75.7-10.4 23.1-25.2 43.9-44.2 61.8-18.9 17.8-40.9 31.8-65.5 41.6-25.4 10.1-52.3 15.3-80.1 15.3zm-202.7-489.5v295.2c0 105.5 91 191.4 202.8 191.4 111.9 0 203-85.8 203-191.4v-295.2h-405.8z"/>
	
	<path d="m192.6 117.2c4.8 7.7 8 50.8-43.3 49.2-30.9-0.9-53.1-37.5-44.2-76.8 8.9-39.5 49.2-62.6 84.5-61.9 61.4 1.6 92.6 47.9 101.7 73.9 8 23.9 12.8 55.8 12.6 75.9h-91.9c6.4-36.6 2.5-51.5 2.5-51.5s-8.9-37.3-35.7-37.3-32.3 23.3-32.3 23.3-3 18.1 10.5 21c3.4 0.7 10.5 0.2 10.5-8.6 0-4.3-3.7-8.4-10.1-7.5 3.1-14.2 22.8-19.6 35.2 0.3zm-6.2 84.4c-6.9 0-12.4 5.4-12.4 12.2 0 6.7 5.5 12.4 12.4 12.4h143.3c6.9 0 12.6-5.6 12.6-12.4s-5.6-12.2-12.6-12.2h-143.3zm13.3-19.6c-3.9 0-6.9 3.4-6.9 7.5 0 4.3 3 7.5 6.9 7.5h116.6c3.7 0 6.9-3.2 6.9-7.5 0-4.1-3.3-7.5-6.9-7.5h-116.6zm-6.5 48.8c-4.1 0-7.6 3.5-7.6 7.4 0 4.1 3.4 7.6 7.6 7.6h129.3c4.1 0 7.6-3.5 7.6-7.6 0-3.9-3.5-7.4-7.6-7.4h-129.3zm5.1 19-31.1 194.8 53.1-39.7 37.7 40.3 37.9-40.3 53.1 39.7-31.4-194.8h-119.3z"/>

</svg>

<?xml version="1.0" encoding="utf-8"?>
<!-- Generator: Adobe Illustrator 25.0.1, SVG Export Plug-In . SVG Version: 6.00 Build 0)  -->
<svg version="1.1" id="Ebene_1" xmlns="http://www.w3.org/2000/svg" xmlns:xlink="http://www.w3.org/1999/xlink" x="0px" y="0px"
	 viewBox="0 0 492.5 492.5" style="enable-background:new 0 0 492.5 492.5;" xml:space="preserve">
<style type="text/css">
	.st0{fill:#FFFFFF;}
</style>
<g>
	<g>
		<path class="st0" d="M450.6,1.5v296.6c0,106.6-91.7,192.9-204.4,192.9c-112.9,0-204.2-86.2-204.2-192.9l0-296.6L450.6,1.5z"/>
		<path d="M246.1,492.5c-27.8,0-54.7-5.1-80.1-15.2c-24.5-9.8-46.5-23.8-65.4-41.6c-18.9-17.8-33.7-38.6-44.1-61.8
			c-10.7-24-16.2-49.4-16.2-75.7L40.4,0h411.7v298.1c0,26.3-5.5,51.7-16.2,75.7c-10.4,23.1-25.2,43.9-44.2,61.8
			c-18.9,17.8-40.9,31.8-65.5,41.6C300.8,487.3,273.9,492.5,246.1,492.5z M43.4,3l0,295.2c0,105.5,91,191.4,202.8,191.4
			c111.9,0,203-85.8,203-191.4V3H43.4z"/>
	</g>
	<path d="M192.6,117.2c4.8,7.7,8,50.8-43.3,49.2c-30.9-0.9-53.1-37.5-44.2-76.8c8.9-39.5,49.2-62.6,84.5-61.9
		c61.4,1.6,92.6,47.9,101.7,73.9c8,23.9,12.8,55.8,12.6,75.9H212c6.4-36.6,2.5-51.5,2.5-51.5s-8.9-37.3-35.7-37.3
		S146.5,112,146.5,112s-3,18.1,10.5,21c3.4,0.7,10.5,0.2,10.5-8.6c0-4.3-3.7-8.4-10.1-7.5C160.5,102.7,180.2,97.3,192.6,117.2
		L192.6,117.2z M186.4,201.6c-6.9,0-12.4,5.4-12.4,12.2c0,6.7,5.5,12.4,12.4,12.4h0.2h143.1c6.9,0,12.6-5.6,12.6-12.4
		c0-6.8-5.6-12.2-12.6-12.2L186.4,201.6L186.4,201.6z M199.7,182c-3.9,0-6.9,3.4-6.9,7.5c0,4.3,3,7.5,6.9,7.5h116.6
		c3.7,0,6.9-3.2,6.9-7.5c0-4.1-3.3-7.5-6.9-7.5H199.7z M193.2,230.8c-4.1,0-7.6,3.5-7.6,7.4c0,4.1,3.4,7.6,7.6,7.6h129.3
		c4.1,0,7.6-3.5,7.6-7.6c0-3.9-3.5-7.4-7.6-7.4H193.2z M198.3,249.8l-31.1,194.8l53.1-39.7l37.7,40.3l37.9-40.3l53.1,39.7
		l-31.4-194.8H198.3z"/>
</g>
</svg>
